icons/type-icons/icons/application-x-smb-workgroup.svg

<?xml version="1.0" encoding="UTF-8"?>
<svg width="22" height="22" version="1.1" xmlns="http://www.w3.org/2000/svg">
 <path id="rect4153" d="m3 3v16h16v-16h-16zm1 1h14v2h-14v-2zm0 3h1v2h-1v-2zm2 0h1v2h-1v-2zm2 0h1v2h-1v-2zm2 0h1v2h-1v-2zm2 0h1v2h-1v-2zm2 0h1v2h-1v-2zm2 0h2v1h-2v-1zm-12 3h14v2h-14v-2zm0 3h1v2h-1v-2zm2 0h1v2h-1v-2zm2 0h1v2h-1v-2zm2 0h1v2h-1v-2zm2 0h1v2h-1v-2zm2 0h1v2h-1v-2zm2 0h2v1h-2v-1zm-12 3h14v2h-14v-2z" fill="#3a539b" stroke-linecap="square" stroke-width="2"/>
</svg>

<?xml version="1.0" encoding="UTF-8" standalone="no"?>

<!-- Created with Inkscape (http://www.inkscape.org/) -->
<svg width="22" version="1.1" xmlns="http://www.w3.org/2000/svg" height="22" xmlns:inkscape="http://www.inkscape.org/namespaces/inkscape">
 <defs id="defs3871"/>
 <metadata id="metadata3874"/>
 <path inkscape:label="Capa 1" inkscape:groupmode="layer" style="fill:#3a539b;stroke-linecap:square;stroke-width:2" id="rect4153" d="M 3 3 L 3 19 L 19 19 L 19 3 L 3 3 z M 4 4 L 18 4 L 18 6 L 4 6 L 4 4 z M 4 7 L 5 7 L 5 9 L 4 9 L 4 7 z M 6 7 L 7 7 L 7 9 L 6 9 L 6 7 z M 8 7 L 9 7 L 9 9 L 8 9 L 8 7 z M 10 7 L 11 7 L 11 9 L 10 9 L 10 7 z M 12 7 L 13 7 L 13 9 L 12 9 L 12 7 z M 14 7 L 15 7 L 15 9 L 14 9 L 14 7 z M 16 7 L 18 7 L 18 8 L 16 8 L 16 7 z M 4 10 L 18 10 L 18 12 L 4 12 L 4 10 z M 4 13 L 5 13 L 5 15 L 4 15 L 4 13 z M 6 13 L 7 13 L 7 15 L 6 15 L 6 13 z M 8 13 L 9 13 L 9 15 L 8 15 L 8 13 z M 10 13 L 11 13 L 11 15 L 10 15 L 10 13 z M 12 13 L 13 13 L 13 15 L 12 15 L 12 13 z M 14 13 L 15 13 L 15 15 L 14 15 L 14 13 z M 16 13 L 18 13 L 18 14 L 16 14 L 16 13 z M 4 16 L 16 16 L 18 16 L 18 18 L 4 18 L 4 16 z "/>
</svg>
